X:1
T:The Maid Behind the Bar
W:Goes with: Cooleys, Silver Spear
R:reel
M:4/4
L:1/8
K:D
FAAB AFED | FAAB ABde | fBBA Bcde | f2gf efdB |
AFAB AFED | FAAB ABde | fBBA BcdB | AFEF D4 ::
fgab afde | fdad bdad | efga beef | gebe geeg |
fgaf bfaf | defd efde | fBBA BcdB | AFEF D4 :|

